images/increative-lessons.svg

<svg width="49" height="48" viewBox="0 0 49 48" fill="none" xmlns="http://www.w3.org/2000/svg">
<g clip-path="url(#clip0_4_84)">
<mask id="mask0_4_84" style="mask-type:luminance" maskUnits="userSpaceOnUse" x="0" y="0" width="48" height="48">
<path d="M0.48877 0.719971H47.5464V47.1487H0.48877V0.719971Z" fill="white"/>
</mask>
<g mask="url(#mask0_4_84)">
<path d="M33.1827 17.4838C34.7027 19.5218 35.5232 21.9965 35.5219 24.5388C35.5219 31.1383 30.0734 36.5075 23.3769 36.5075C16.6795 36.5075 11.232 31.1383 11.232 24.5388C11.232 17.9383 16.6795 12.5692 23.3769 12.5692C26.0806 12.5692 28.5805 13.444 30.6005 14.9222L34.0996 11.474C31.0552 9.0427 27.273 7.72174 23.3769 7.72903C13.9719 7.72903 6.31931 15.2699 6.31931 24.5388C6.31931 33.8077 13.9719 41.3486 23.3769 41.3486C32.782 41.3486 40.4336 33.8077 40.4336 24.5388C40.4336 20.5666 39.0289 16.9127 36.6837 14.0327L33.1827 17.4838Z" fill="#607987" fill-opacity="0.1"/>
<path d="M23.7727 24.2038C24.4659 22.0674 25.5969 20.099 27.0935 18.4242C25.9684 17.7581 24.6844 17.4079 23.3769 17.4103C19.388 17.4103 16.1436 20.6077 16.1436 24.5388C16.1436 28.4689 19.388 31.6673 23.3769 31.6673C27.3658 31.6673 30.6102 28.4699 30.6102 24.5388C30.6114 23.2731 30.2699 22.0308 29.6218 20.9437C27.9154 22.4181 25.9251 23.5276 23.7737 24.2038H23.7727Z" fill="#607987" fill-opacity="0.1"/>
<path d="M47.277 9.56768C47.399 9.44788 47.4843 9.29575 47.5228 9.12916C47.5613 8.96258 47.5515 8.78846 47.4945 8.62727C47.4365 8.46527 47.3341 8.32287 47.1989 8.21633C47.0638 8.10979 46.9015 8.04343 46.7304 8.02482L43.0148 7.60849L40.6109 5.23984L40.1887 1.57813C40.1684 1.40777 40.1003 1.24663 39.9923 1.11333C39.8843 0.980025 39.7408 0.880003 39.5784 0.824821C39.4153 0.768373 39.2397 0.758546 39.0713 0.796445C38.9029 0.834344 38.7484 0.918466 38.6253 1.03935L34.989 4.6227C34.8891 4.72262 34.7931 4.82645 34.7049 4.93421C31.2449 2.99403 27.3438 1.97724 23.3769 1.98172C17.2643 1.98172 11.516 4.32784 7.1931 8.58809C2.87016 12.8483 0.48877 18.5133 0.48877 24.5388C0.48877 30.5633 2.86918 36.2282 7.1931 40.4895C11.516 44.7497 17.2633 47.0958 23.3769 47.0958C29.4896 47.0958 35.2378 44.7497 39.5608 40.4895C43.8837 36.2282 46.2651 30.5642 46.2651 24.5388C46.2651 20.6351 45.2453 16.8167 43.3097 13.4439C43.4243 13.3528 43.535 13.2558 43.6408 13.151L47.277 9.56768ZM42.3418 11.8678C42.1101 12.0965 41.8299 12.2703 41.522 12.3763C41.2141 12.4823 40.8863 12.5177 40.5629 12.48L39.6617 12.3791L42.6886 9.39723L44.6282 9.6147L42.3418 11.8678ZM29.7541 19.5801C28.4861 20.8263 27.0144 21.8467 25.4027 22.5972C26.1687 21.003 27.204 19.5528 28.463 18.3105L39.8684 7.0707L41.1575 8.34221L29.7541 19.5801ZM22.9694 23.7159L22.9635 23.7208L21.983 24.6877C21.8977 24.7712 21.8299 24.871 21.7836 24.981C21.7373 25.0911 21.7135 25.2092 21.7134 25.3286C21.7133 25.448 21.737 25.5662 21.7831 25.6763C21.8292 25.7865 21.8968 25.8863 21.982 25.97C22.1553 26.1408 22.3891 26.2362 22.6324 26.2354C22.8675 26.2354 23.1026 26.1473 23.2819 25.9709L24.2625 25.0041L24.2684 24.9982C26.8173 24.1589 29.1391 22.7444 31.054 20.8643L33.0386 18.9081C34.0656 20.6065 34.607 22.554 34.604 24.5388C34.604 30.6387 29.5689 35.6013 23.3779 35.6013C17.1869 35.6013 12.1518 30.6387 12.1518 24.5388C12.1518 18.4389 17.1869 13.4762 23.3779 13.4762C25.437 13.4762 27.4187 14.0209 29.1614 15.0602L27.165 17.0273C25.2657 18.9004 23.8291 21.1906 22.9694 23.7159ZM38.5773 3.64996L38.7977 5.56213L35.7707 8.54596L35.6679 7.65747C35.6305 7.33747 35.6671 7.01317 35.7748 6.70952C35.8824 6.40586 36.0583 6.13096 36.2889 5.90596L38.5773 3.64996ZM44.4264 24.5388C44.4264 35.9765 34.9831 45.2816 23.3769 45.2816C11.7697 45.2816 2.32746 35.9765 2.32746 24.5388C2.32746 13.1001 11.7707 3.79494 23.3769 3.79494C27.0896 3.79494 30.716 4.75396 33.9056 6.57209C33.8145 6.98939 33.791 7.42433 33.8409 7.86221L34.1093 10.1829L30.4946 13.7447C28.3726 12.3786 25.9007 11.6553 23.3769 11.662C16.173 11.662 10.3121 17.4387 10.3121 24.5388C10.3121 31.6389 16.173 37.4145 23.3769 37.4145C30.5808 37.4145 36.4417 31.6389 36.4417 24.5388C36.4417 22.0565 35.7276 19.6663 34.3728 17.5915L37.9993 14.0189L40.3552 14.2825C40.785 14.3301 41.2197 14.3103 41.6434 14.2237C43.4677 17.3551 44.428 20.9147 44.4264 24.5388Z" fill="#4E6575"/>
</g>
</g>
<defs>
<clipPath id="clip0_4_84">
<rect width="48" height="48" fill="white" transform="translate(0.380005)"/>
</clipPath>
</defs>
</svg>

<svg xmlns="http://www.w3.org/2000/svg" width="49" height="48" fill="none"><g clip-path="url(#a)"><mask id="b" width="48" height="48" x="0" y="0" maskUnits="userSpaceOnUse" style="mask-type:luminance"><path fill="#fff" d="M.489.72h47.057v46.429H.49V.72Z"/></mask><g mask="url(#b)"><path fill="#607987" fill-opacity=".1" d="M33.183 17.484a11.79 11.79 0 0 1 2.339 7.055c0 6.6-5.449 11.968-12.145 11.968-6.697 0-12.145-5.369-12.145-11.968 0-6.6 5.448-11.97 12.145-11.97 2.704 0 5.204.875 7.224 2.353l3.499-3.448a17.131 17.131 0 0 0-10.723-3.745c-9.405 0-17.058 7.54-17.058 16.81 0 9.269 7.653 16.81 17.058 16.81 9.405 0 17.057-7.541 17.057-16.81 0-3.972-1.405-7.626-3.75-10.506l-3.501 3.45Z"/><path fill="#607987" fill-opacity=".1" d="M23.773 24.204a16.158 16.158 0 0 1 3.32-5.78 7.27 7.27 0 0 0-3.716-1.014c-3.989 0-7.233 3.198-7.233 7.129 0 3.93 3.244 7.128 7.233 7.128 3.989 0 7.233-3.197 7.233-7.128a7.007 7.007 0 0 0-.988-3.595 16.523 16.523 0 0 1-5.848 3.26h-.001Z"/><path fill="#4E6575" d="M47.277 9.568a.898.898 0 0 0-.078-1.352.917.917 0 0 0-.469-.191l-3.715-.417L40.61 5.24l-.422-3.662a.91.91 0 0 0-.61-.753.928.928 0 0 0-.954.214L34.99 4.623c-.1.1-.196.203-.284.311a23.107 23.107 0 0 0-11.328-2.952c-6.113 0-11.861 2.346-16.184 6.606S.49 18.513.49 24.538c0 6.025 2.38 11.69 6.704 15.951 4.323 4.26 10.07 6.607 16.184 6.607 6.113 0 11.86-2.346 16.184-6.606 4.323-4.262 6.704-9.926 6.704-15.951 0-3.904-1.02-7.722-2.955-11.095a4.05 4.05 0 0 0 .33-.293l3.637-3.583Zm-4.935 2.3a2.175 2.175 0 0 1-1.78.612l-.9-.1 3.027-2.983 1.94.218-2.287 2.253ZM29.754 19.58a15.607 15.607 0 0 1-4.351 3.017 15.38 15.38 0 0 1 3.06-4.287L39.868 7.07l1.29 1.272L29.753 19.58Zm-6.785 4.136-.006.005-.98.967a.898.898 0 0 0-.001 1.282c.173.17.407.266.65.265.235 0 .47-.088.65-.264l.98-.967.006-.006a17.497 17.497 0 0 0 6.786-4.134l1.985-1.956a10.85 10.85 0 0 1 1.565 5.63c0 6.1-5.035 11.063-11.226 11.063-6.191 0-11.226-4.962-11.226-11.062s5.035-11.063 11.226-11.063c2.059 0 4.04.545 5.783 1.584l-1.996 1.967a17.162 17.162 0 0 0-4.196 6.689ZM38.577 3.65l.22 1.912-3.026 2.984-.103-.889a2.105 2.105 0 0 1 .62-1.751l2.29-2.256Zm5.85 20.889c0 11.438-9.444 20.743-21.05 20.743-11.607 0-21.05-9.305-21.05-20.743 0-11.439 9.444-20.744 21.05-20.744 3.713 0 7.339.959 10.529 2.777a3.947 3.947 0 0 0-.065 1.29l.268 2.32-3.614 3.563a13.085 13.085 0 0 0-7.118-2.083c-7.204 0-13.065 5.777-13.065 12.877 0 7.1 5.861 12.875 13.065 12.875S36.442 31.64 36.442 24.54c0-2.483-.714-4.873-2.07-6.948L38 14.02l2.356.264c.43.047.865.027 1.288-.06a20.473 20.473 0 0 1 2.783 10.316Z"/></g></g><defs><clipPath id="a"><path fill="#fff" d="M.38 0h48v48h-48z"/></clipPath></defs></svg>
